assets/next.svg

<svg fill="none" height="24" viewBox="0 0 24 24" width="24" xmlns="http://www.w3.org/2000/svg"><g fill="#fff"><path d="m13 9c0-.55228.4477-1 1-1h1c.5523 0 1 .44772 1 1v6c0 .5523-.4477 1-1 1h-1c-.5523 0-1-.4477-1-1z"/><path d="m12.7408 11.145-4.17666-2.85424c-.66373-.45357-1.56422.02173-1.56422.82563l.00002 5.77091c0 .8085.90966 1.2828 1.57254.8199l4.17662-2.9167c.5735-.4005.5692-1.2508-.0083-1.6455z"/></g></svg>

<svg width="24" height="24" viewBox="0 0 24 24" fill="none" xmlns="http://www.w3.org/2000/svg">
<path d="M13 9C13 8.44772 13.4477 8 14 8H15C15.5523 8 16 8.44772 16 9V15C16 15.5523 15.5523 16 15 16H14C13.4477 16 13 15.5523 13 15V9Z" fill="white"/>
<path d="M12.7408 11.145L8.56414 8.29076C7.90041 7.83719 6.99992 8.31249 6.99992 9.11639L6.99994 14.8873C6.99994 15.6958 7.9096 16.1701 8.57248 15.7072L12.7491 12.7905C13.3226 12.39 13.3183 11.5397 12.7408 11.145Z" fill="white"/>
</svg>
